X:1
T:Fortunatus, 11.11.11.11. refrain
T:Arthur Seymour Sullivan, 1872
T:Fortunatus, 11.11.11.11. refrain
T:Public Domain
C:Arthur Seymour Sullivan, 1872
Z:Public Domain
%%score ( 1 2 ) ( 3 4 )
L:1/8
M:4/4
K:G
V:1 treble 
V:2 treble 
V:3 bass 
V:4 bass 
V:1
 (GF) [DG]2 [FA]2 [GB]2 | [Gc]2 [GB]2 [EA]2 [DG]2 | [EG]4 [DF]4 | [DG]8 | (Bc) [Gd]2 [Ge]2 [Gd]2 | %5
 [Fc]2 [GB]2 A2 [GB]2 | [FA]4 [G^c]4 | [Fd]8 | [Fd]2 [Fd]2 [F^c]2 [Ec]2 | [DB]4 [DF]4 | %10
 [GB]2 [GB]2 [FA]2 [EG]2 | [DF]8 | [DG]2 [DG]2 [^CF]2 [CE]2 | [DA]2 [EG]2 [DF]2 D2 | [DF]4 [^CE]4 | %15
 D8 | (Bc) [Gd]2 [Ge]2 [Gd]2 | [GB]2 [FA]2 G2 [Ac]2 | [GB]4 [FA]4 | [B,G]8 |] %20
V:2
 D2 x6 | x8 | x8 | x8 | G2 x6 | x8 | x8 | x8 | x8 | x8 | x8 | x8 | x8 | x8 | x8 | D8 | G2 x6 | x8 | %18
 x8 | x8 |] %20
V:3
 (B,A,) [G,B,]2 [D,D]2 [G,D]2 | [C,E]2 [G,,D]2 [A,,C]2 [B,,B,]2 | [C,A,]4 [D,A,]4 | [G,,B,]8 | %4
 (G,A,) [B,D]2 C2 [B,D]2 | [A,D]2 [G,D]2 [F,D]2 [G,D]2 | [A,D]4 [A,,A,]4 | [D,A,]8 | %8
 [B,,B,]2 [B,,B,]2 [F,^A,]2 [F,,A,]2 | [B,,B,]4 [B,,B,]4 | [B,,B,]2 [B,,B,]2 [E,B,]2 [G,B,]2 | %11
 B,8 | [E,B,]2 [E,B,]2 A,2 [G,A,]2 | [F,A,]2 [^C,A,]2 [D,A,]2 [G,,B,]2 | [A,,A,]4 [A,,G,]4 | %15
 [D,F,]8 | (G,A,) [B,D]2 C2 [B,D]2 | [G,D]2 [D,C]2 [E,B,]2 [C,E]2 | [D,D]4 [D,C]4 | G,,8 |] %20
V:4
 G,2 x6 | x8 | x8 | x8 | D2 x6 | x8 | x8 | x8 | x8 | x8 | x8 | B,8 | x4 A,2 x2 | x8 | x8 | x8 | %16
 D2 x C2 x3 | x8 | x8 | G,8 |] %20

